public/assets/us.svg

<svg xmlns="http://www.w3.org/2000/svg" xml:space="preserve" id="Layer_1" x="0" y="0" version="1.1" viewBox="0 0 28 19"><style>.st0{fill:#f5f5f5}.st1{fill:#ff4b55}</style><path d="M28.4 19.3H-.8c-.3 0-.5-.2-.5-.5V.1c0-.3.2-.5.5-.5h29.2c.3 0 .5.2.5.5v18.8c0 .2-.3.4-.5.4" class="st0"/><path d="M28.9 1.1H-1.3v-1c0-.3.2-.5.5-.5h29.2c.3 0 .5.2.5.5zM-1.3 5.6h30.2v1.5H-1.3zM-1.3 2.6h30.2v1.5H-1.3zM28.9 10.2H-.8c-.3 0-.5-.2-.5-.5v-1h30.2zM-1.3 14.8h30.2v1.5H-1.3zM28.4 19.3H-.8c-.3 0-.5-.2-.5-.5v-1h30.2v1c0 .3-.3.5-.5.5M-1.3 11.7h30.2v1.5H-1.3z" class="st1"/><path d="M12.2-.5h-13c-.3 0-.5.2-.5.5v9.6c0 .3.2.5.5.5h13c.3 0 .5-.2.5-.5V.1c0-.3-.2-.6-.5-.6" style="fill:#41479b"/><path d="m.1.7.1.3h.4s.1.1 0 .1l-.3.3.1.3s0 .1-.1.1l-.2-.2-.3.2s-.1 0-.1-.1l.1-.3-.3-.2v-.1h.4zC0 .7.1.7.1.7M.1 2.5l.1.3h.4s.1.1 0 .1l-.3.3.1.3s0 .1-.1.1l-.2-.2-.3.2s-.1 0-.1-.1l.1-.3-.3-.2v-.1h.4zc-.1 0 0 0 0 0M.1 4.4l.1.3h.4s.1.1 0 .1L.3 5l.1.3s0 .1-.1.1l-.2-.2-.3.2s-.1 0-.1-.1l.1-.3-.3-.2v-.1h.4zc-.1-.1 0-.1 0 0M.1 6.2l.1.3h.4s.1.1 0 .1l-.3.2.1.3s0 .1-.1.1L.1 7l-.3.2s-.1 0-.1-.1l.1-.3-.3-.2v-.1h.4zc-.1-.1 0-.1 0 0M.1 8l.1.3h.4s.1.1 0 .1l-.3.2.1.4s0 .1-.1.1l-.2-.3-.3.2s-.1 0-.1-.1l.1-.3-.3-.2v-.1h.4zc-.1-.1 0-.1 0 0M1.5 1.6l.1.4H2s.1.1 0 .1l-.3.2.1.3s0 .1-.1.1l-.2-.2-.3.2s-.1 0-.1-.1l.1-.3-.3-.2V2h.4zc-.1 0 0 0 0 0M1.5 3.4l.1.3H2s.1.1 0 .1l-.3.3.1.3s0 .1-.1.1l-.2-.2-.3.2s-.1 0-.1-.1l.1-.3-.3-.2v-.1h.4zc-.1 0 0 0 0 0M1.5 5.2l.1.3H2s.1.1 0 .1l-.3.3.1.3s0 .1-.1.1l-.2-.2-.3.2s-.1 0-.1-.1l.1-.3-.3-.2v-.1h.4zc-.1 0 0 0 0 0M1.5 7.1l.1.3H2s.1.1 0 .1l-.3.2.1.3s0 .1-.1.1l-.2-.2-.3.2s-.1 0-.1-.1l.1-.3-.3-.2v-.1h.4zc-.1-.1 0-.1 0 0M2.9.7l.1.4h.4s.1.1 0 .1l-.3.2.1.3s0 .1-.1.1l-.2-.2-.3.2s-.1 0-.1-.1l.1-.3-.3-.2v-.1h.4zM2.9 2.5l.1.4h.4s.1.1 0 .1l-.3.2.1.3s0 .1-.1.1l-.2-.2-.3.2s-.1 0-.1-.1l.1-.3-.3-.2v-.1h.4zM2.9 4.4l.1.3h.4s.1.1 0 .1l-.3.2.1.3s0 .1-.1.1l-.2-.2-.3.2s-.1 0-.1-.1l.1-.3-.3-.2v-.1h.4zq0-.15 0 0M2.9 6.2l.1.3h.4s.1.1 0 .1l-.3.2.1.3s0 .1-.1.1L2.9 7l-.3.2s-.1 0-.1-.1l.1-.3-.3-.2v-.1h.4zq0-.15 0 0M2.9 8l.1.3h.4s.1.1 0 .1l-.3.2.2.4s0 .1-.1.1l-.3-.3-.3.2s-.1 0-.1-.1l.1-.3-.3-.2v-.1h.4zq0-.15 0 0M4.3 1.6l.1.4h.4s.1.1 0 .1l-.3.2.1.3s0 .1-.1.1l-.2-.2-.3.2s-.1 0-.1-.1l.1-.3-.3-.2V2h.4zM4.3 3.4l.1.3h.4s.1.1 0 .1l-.3.3.1.3s0 .1-.1.1l-.2-.2-.3.2s-.1 0-.1-.1l.1-.3-.3-.2v-.1h.4zM4.3 5.2l.1.3h.4s.1.1 0 .1l-.3.3.1.3s0 .1-.1.1l-.2-.2-.3.2s-.1 0-.1-.1l.1-.3-.3-.2v-.1h.4zM4.3 7.1l.1.3h.4s.1.1 0 .1l-.3.2.1.3s0 .1-.1.1l-.2-.2-.3.2s-.1 0-.1-.1l.1-.3-.3-.2v-.1h.4zq0-.15 0 0M5.7.7l.1.3h.4s.1.1 0 .1l-.2.3.1.3s0 .1-.1.1l-.3-.2-.3.2s-.1 0-.1-.1l.1-.3-.3-.2v-.1h.4zM5.7 2.5l.1.3h.4s.1.1 0 .1l-.2.3.1.3s0 .1-.1.1l-.3-.2-.3.2s-.1 0-.1-.1l.1-.3-.3-.2v-.1h.4zM5.7 4.4l.1.3h.4s.1.1 0 .1L6 5l.1.3s0 .1-.1.1l-.3-.2-.3.2s-.1 0-.1-.1l.1-.3-.3-.2v-.1h.4zq0-.15 0 0M5.7 6.2l.1.3h.4s.1.1 0 .1l-.2.2.1.3s0 .1-.1.1L5.7 7l-.3.2s-.1 0-.1-.1l.1-.3-.3-.2v-.1h.4zq0-.15 0 0M5.7 8l.1.3h.4s.1.1 0 .1l-.2.2.1.4S6 9.1 6 9l-.3-.2-.3.2s-.1 0-.1-.1l.1-.3-.3-.2v-.1h.4zq0-.15 0 0M7.1 1.6l.2.4h.4s.1.1 0 .1l-.3.2.1.3s0 .1-.1.1l-.3-.2-.3.2s-.1 0-.1-.1l.1-.3-.3-.2V2h.4zM7.1 3.4l.1.3h.4s.1.1 0 .1l-.2.3.1.3s0 .1-.1.1l-.3-.2-.3.2s-.1 0-.1-.1l.1-.3-.3-.2v-.1h.4zM7.1 5.2l.1.3h.4s.1.1 0 .1l-.2.3.1.3s0 .1-.1.1l-.3-.2-.3.2s-.1 0-.1-.1l.1-.3-.3-.2v-.1h.4zM7.1 7.1l.1.3h.4s.1.1 0 .1l-.2.2.1.3s0 .1-.1.1l-.3-.2-.3.2s-.1 0-.1-.1l.1-.3-.3-.2v-.1h.4zq0-.15 0 0M8.5.7l.1.3H9s.1.1 0 .1l-.2.3.1.3s0 .1-.1.1l-.3-.2-.3.2s-.1 0-.1-.1l.1-.3-.3-.2v-.1h.4zM8.5 2.5l.1.3H9s.1.1 0 .1l-.2.3.1.3s0 .1-.1.1l-.3-.2-.3.2s-.1 0-.1-.1l.1-.3-.3-.2v-.1h.4zM8.5 4.4l.1.3H9s.1.1 0 .1l-.2.2.1.3s0 .1-.1.1l-.3-.2-.3.2s-.1 0-.1-.1l.1-.3-.3-.2v-.1h.4zq0-.15 0 0M8.5 6.2l.1.3H9s.1.1 0 .1l-.2.2.1.3s0 .1-.1.1L8.5 7l-.3.2s-.1 0-.1-.1l.1-.3-.3-.2v-.1h.4zq0-.15 0 0M8.5 8l.1.3H9s.1.1 0 .1l-.2.2.1.4s0 .1-.1.1l-.3-.3-.3.2s-.1 0-.1-.1l.1-.3-.3-.2v-.1h.4zq0-.15 0 0M9.9 1.6l.2.4h.4s.1.1 0 .1l-.3.2.1.3s0 .1-.1.1l-.3-.2-.3.2s-.1 0-.1-.1l.1-.3-.3-.2V2h.4zM9.9 3.4l.1.3h.4s.1.1 0 .1l-.3.2.1.3s0 .1-.1.1l-.2-.1-.3.2s-.1 0-.1-.1l.1-.3-.3-.2v-.1h.4zM9.9 5.2l.1.3h.4s.1.1 0 .1l-.3.2.1.3s0 .1-.1.1l-.2-.1-.3.2s-.1 0-.1-.1l.1-.3-.3-.2v-.1h.4zM9.9 7.1l.1.3h.4s.1.1 0 .1l-.3.2.1.3s0 .1-.1.1l-.2-.2-.3.2s-.1 0-.1-.1l.1-.3-.3-.2v-.1h.4zq0-.15 0 0M11.4.7l.1.3h.4s.1.1 0 .1l-.3.2.1.3s0 .1-.1.1l-.3-.2-.3.3s-.1 0-.1-.1l.1-.3-.3-.2v-.1h.4zq-.15 0 0 0M11.4 2.5l.1.3h.4s.1.1 0 .1l-.3.2.1.3s0 .1-.1.1l-.3-.2-.3.3s-.1 0-.1-.1l.1-.3-.2-.2v-.1h.4zq-.15 0 0 0M11.4 4.4l.1.3h.4s.1.1 0 .1l-.3.2.1.3s0 .1-.1.1l-.3-.2-.3.2s-.1 0-.1-.1L11 5l-.3-.2v-.1h.4zq-.15-.15 0 0M11.4 6.2l.1.3h.4s.1.1 0 .1l-.3.2.1.3s0 .1-.1.1l-.3-.2-.3.2s-.1 0-.1-.1l.1-.3-.3-.2v-.1h.4zq-.15-.15 0 0M11.4 8l.1.3h.4s.1.1 0 .1l-.3.2.1.4s0 .1-.1.1l-.3-.2-.3.1s-.1 0-.1-.1l.1-.3-.3-.2v-.1h.4zq-.15-.15 0 0" class="st0"/></svg>

<?xml version="1.0" encoding="utf-8"?>
<!-- Generator: Adobe Illustrator 25.1.0, SVG Export Plug-In . SVG Version: 6.00 Build 0)  -->
<svg version="1.1" id="Layer_1" xmlns="http://www.w3.org/2000/svg" xmlns:xlink="http://www.w3.org/1999/xlink" x="0px" y="0px"
	 viewBox="0 0 28 19" style="enable-background:new 0 0 28 19;" xml:space="preserve">
<style type="text/css">
	.st0{fill:#F5F5F5;}
	.st1{fill:#FF4B55;}
	.st2{fill:#41479B;}
</style>
<g>
	<path class="st0" d="M28.4,19.3H-0.8c-0.3,0-0.5-0.2-0.5-0.5V0.1c0-0.3,0.2-0.5,0.5-0.5h29.2c0.3,0,0.5,0.2,0.5,0.5v18.8
		C28.9,19.1,28.6,19.3,28.4,19.3z"/>
	<g>
		<path class="st1" d="M28.9,1.1H-1.3v-1c0-0.3,0.2-0.5,0.5-0.5h29.2c0.3,0,0.5,0.2,0.5,0.5L28.9,1.1L28.9,1.1z"/>
		<rect x="-1.3" y="5.6" class="st1" width="30.2" height="1.5"/>
		<rect x="-1.3" y="2.6" class="st1" width="30.2" height="1.5"/>
		<path class="st1" d="M28.9,10.2H-0.8c-0.3,0-0.5-0.2-0.5-0.5v-1h30.2V10.2z"/>
		<rect x="-1.3" y="14.8" class="st1" width="30.2" height="1.5"/>
		<path class="st1" d="M28.4,19.3H-0.8c-0.3,0-0.5-0.2-0.5-0.5v-1h30.2v1C28.9,19.1,28.6,19.3,28.4,19.3z"/>
		<rect x="-1.3" y="11.7" class="st1" width="30.2" height="1.5"/>
	</g>
	<path class="st2" d="M12.2-0.5h-13c-0.3,0-0.5,0.2-0.5,0.5v9.6c0,0.3,0.2,0.5,0.5,0.5h13c0.3,0,0.5-0.2,0.5-0.5V0.1
		C12.7-0.2,12.5-0.5,12.2-0.5z"/>
	<g>
		<path class="st0" d="M0.1,0.7l0.1,0.3l0.4,0c0,0,0.1,0.1,0,0.1L0.3,1.4l0.1,0.3c0,0,0,0.1-0.1,0.1L0.1,1.6l-0.3,0.2
			c0,0-0.1,0-0.1-0.1l0.1-0.3l-0.3-0.2c0,0,0-0.1,0-0.1l0.4,0L0.1,0.7C0,0.7,0.1,0.7,0.1,0.7z"/>
		<path class="st0" d="M0.1,2.5l0.1,0.3l0.4,0c0,0,0.1,0.1,0,0.1L0.3,3.2l0.1,0.3c0,0,0,0.1-0.1,0.1L0.1,3.4l-0.3,0.2
			c0,0-0.1,0-0.1-0.1l0.1-0.3L-0.5,3c0,0,0-0.1,0-0.1l0.4,0L0.1,2.5C0,2.5,0.1,2.5,0.1,2.5z"/>
		<path class="st0" d="M0.1,4.4l0.1,0.3l0.4,0c0,0,0.1,0.1,0,0.1L0.3,5l0.1,0.3c0,0,0,0.1-0.1,0.1L0.1,5.2l-0.3,0.2
			c0,0-0.1,0-0.1-0.1L-0.2,5l-0.3-0.2c0,0,0-0.1,0-0.1l0.4,0L0.1,4.4C0,4.3,0.1,4.3,0.1,4.4z"/>
		<path class="st0" d="M0.1,6.2l0.1,0.3l0.4,0c0,0,0.1,0.1,0,0.1L0.3,6.8l0.1,0.3c0,0,0,0.1-0.1,0.1L0.1,7l-0.3,0.2
			c0,0-0.1,0-0.1-0.1l0.1-0.3l-0.3-0.2c0,0,0-0.1,0-0.1l0.4,0L0.1,6.2C0,6.1,0.1,6.1,0.1,6.2z"/>
		<path class="st0" d="M0.1,8l0.1,0.3l0.4,0c0,0,0.1,0.1,0,0.1L0.3,8.6L0.4,9c0,0,0,0.1-0.1,0.1L0.1,8.8L-0.2,9c0,0-0.1,0-0.1-0.1
			l0.1-0.3l-0.3-0.2c0,0,0-0.1,0-0.1l0.4,0L0.1,8C0,7.9,0.1,7.9,0.1,8z"/>
		<path class="st0" d="M1.5,1.6L1.6,2L2,2c0,0,0.1,0.1,0,0.1L1.7,2.3l0.1,0.3c0,0,0,0.1-0.1,0.1L1.5,2.5L1.2,2.7c0,0-0.1,0-0.1-0.1
			l0.1-0.3L0.9,2.1c0,0,0-0.1,0-0.1l0.4,0L1.5,1.6C1.4,1.6,1.5,1.6,1.5,1.6z"/>
		<path class="st0" d="M1.5,3.4l0.1,0.3l0.4,0c0,0,0.1,0.1,0,0.1L1.7,4.1l0.1,0.3c0,0,0,0.1-0.1,0.1L1.5,4.3L1.2,4.5
			c0,0-0.1,0-0.1-0.1l0.1-0.3L0.9,3.9c0,0,0-0.1,0-0.1l0.4,0L1.5,3.4C1.4,3.4,1.5,3.4,1.5,3.4z"/>
		<path class="st0" d="M1.5,5.2l0.1,0.3l0.4,0c0,0,0.1,0.1,0,0.1L1.7,5.9l0.1,0.3c0,0,0,0.1-0.1,0.1L1.5,6.1L1.2,6.3
			c0,0-0.1,0-0.1-0.1l0.1-0.3L0.9,5.7c0,0,0-0.1,0-0.1l0.4,0L1.5,5.2C1.4,5.2,1.5,5.2,1.5,5.2z"/>
		<path class="st0" d="M1.5,7.1l0.1,0.3l0.4,0c0,0,0.1,0.1,0,0.1L1.7,7.7l0.1,0.3c0,0,0,0.1-0.1,0.1L1.5,7.9L1.2,8.1
			c0,0-0.1,0-0.1-0.1l0.1-0.3L0.9,7.5c0,0,0-0.1,0-0.1l0.4,0L1.5,7.1C1.4,7,1.5,7,1.5,7.1z"/>
		<path class="st0" d="M2.9,0.7L3,1.1l0.4,0c0,0,0.1,0.1,0,0.1L3.1,1.4l0.1,0.3c0,0,0,0.1-0.1,0.1L2.9,1.6L2.6,1.8
			c0,0-0.1,0-0.1-0.1l0.1-0.3L2.3,1.2c0,0,0-0.1,0-0.1l0.4,0L2.9,0.7C2.9,0.7,2.9,0.7,2.9,0.7z"/>
		<path class="st0" d="M2.9,2.5L3,2.9l0.4,0c0,0,0.1,0.1,0,0.1L3.1,3.2l0.1,0.3c0,0,0,0.1-0.1,0.1L2.9,3.4L2.6,3.6
			c0,0-0.1,0-0.1-0.1l0.1-0.3L2.3,3c0,0,0-0.1,0-0.1l0.4,0L2.9,2.5C2.9,2.5,2.9,2.5,2.9,2.5z"/>
		<path class="st0" d="M2.9,4.4L3,4.7l0.4,0c0,0,0.1,0.1,0,0.1L3.1,5l0.1,0.3c0,0,0,0.1-0.1,0.1L2.9,5.2L2.6,5.4c0,0-0.1,0-0.1-0.1
			L2.6,5L2.3,4.8c0,0,0-0.1,0-0.1l0.4,0L2.9,4.4C2.9,4.3,2.9,4.3,2.9,4.4z"/>
		<path class="st0" d="M2.9,6.2L3,6.5l0.4,0c0,0,0.1,0.1,0,0.1L3.1,6.8l0.1,0.3c0,0,0,0.1-0.1,0.1L2.9,7L2.6,7.2c0,0-0.1,0-0.1-0.1
			l0.1-0.3L2.3,6.6c0,0,0-0.1,0-0.1l0.4,0L2.9,6.2C2.9,6.1,2.9,6.1,2.9,6.2z"/>
		<path class="st0" d="M2.9,8L3,8.3l0.4,0c0,0,0.1,0.1,0,0.1L3.1,8.6L3.3,9c0,0,0,0.1-0.1,0.1L2.9,8.8L2.6,9c0,0-0.1,0-0.1-0.1
			l0.1-0.3L2.3,8.4c0,0,0-0.1,0-0.1l0.4,0L2.9,8C2.9,7.9,2.9,7.9,2.9,8z"/>
		<path class="st0" d="M4.3,1.6L4.4,2l0.4,0c0,0,0.1,0.1,0,0.1L4.5,2.3l0.1,0.3c0,0,0,0.1-0.1,0.1L4.3,2.5L4,2.7c0,0-0.1,0-0.1-0.1
			L4,2.3L3.7,2.1c0,0,0-0.1,0-0.1l0.4,0L4.3,1.6C4.3,1.6,4.3,1.6,4.3,1.6z"/>
		<path class="st0" d="M4.3,3.4l0.1,0.3l0.4,0c0,0,0.1,0.1,0,0.1L4.5,4.1l0.1,0.3c0,0,0,0.1-0.1,0.1L4.3,4.3L4,4.5
			c0,0-0.1,0-0.1-0.1L4,4.1L3.7,3.9c0,0,0-0.1,0-0.1l0.4,0L4.3,3.4C4.3,3.4,4.3,3.4,4.3,3.4z"/>
		<path class="st0" d="M4.3,5.2l0.1,0.3l0.4,0c0,0,0.1,0.1,0,0.1L4.5,5.9l0.1,0.3c0,0,0,0.1-0.1,0.1L4.3,6.1L4,6.3
			c0,0-0.1,0-0.1-0.1L4,5.9L3.7,5.7c0,0,0-0.1,0-0.1l0.4,0L4.3,5.2C4.3,5.2,4.3,5.2,4.3,5.2z"/>
		<path class="st0" d="M4.3,7.1l0.1,0.3l0.4,0c0,0,0.1,0.1,0,0.1L4.5,7.7l0.1,0.3c0,0,0,0.1-0.1,0.1L4.3,7.9L4,8.1
			c0,0-0.1,0-0.1-0.1L4,7.7L3.7,7.5c0,0,0-0.1,0-0.1l0.4,0L4.3,7.1C4.3,7,4.3,7,4.3,7.1z"/>
		<path class="st0" d="M5.7,0.7l0.1,0.3l0.4,0c0,0,0.1,0.1,0,0.1L6,1.4l0.1,0.3c0,0,0,0.1-0.1,0.1L5.7,1.6L5.4,1.8
			c0,0-0.1,0-0.1-0.1l0.1-0.3L5.1,1.2c0,0,0-0.1,0-0.1l0.4,0L5.7,0.7C5.7,0.7,5.7,0.7,5.7,0.7z"/>
		<path class="st0" d="M5.7,2.5l0.1,0.3l0.4,0c0,0,0.1,0.1,0,0.1L6,3.2l0.1,0.3c0,0,0,0.1-0.1,0.1L5.7,3.4L5.4,3.6
			c0,0-0.1,0-0.1-0.1l0.1-0.3L5.1,3c0,0,0-0.1,0-0.1l0.4,0L5.7,2.5C5.7,2.5,5.7,2.5,5.7,2.5z"/>
		<path class="st0" d="M5.7,4.4l0.1,0.3l0.4,0c0,0,0.1,0.1,0,0.1L6,5l0.1,0.3c0,0,0,0.1-0.1,0.1L5.7,5.2L5.4,5.4c0,0-0.1,0-0.1-0.1
			L5.4,5L5.1,4.8c0,0,0-0.1,0-0.1l0.4,0L5.7,4.4C5.7,4.3,5.7,4.3,5.7,4.4z"/>
		<path class="st0" d="M5.7,6.2l0.1,0.3l0.4,0c0,0,0.1,0.1,0,0.1L6,6.8l0.1,0.3c0,0,0,0.1-0.1,0.1L5.7,7L5.4,7.2c0,0-0.1,0-0.1-0.1
			l0.1-0.3L5.1,6.6c0,0,0-0.1,0-0.1l0.4,0L5.7,6.2C5.7,6.1,5.7,6.1,5.7,6.2z"/>
		<path class="st0" d="M5.7,8l0.1,0.3l0.4,0c0,0,0.1,0.1,0,0.1L6,8.6L6.1,9C6.1,9,6,9.1,6,9L5.7,8.8L5.4,9c0,0-0.1,0-0.1-0.1
			l0.1-0.3L5.1,8.4c0,0,0-0.1,0-0.1l0.4,0L5.7,8C5.7,7.9,5.7,7.9,5.7,8z"/>
		<path class="st0" d="M7.1,1.6L7.3,2l0.4,0c0,0,0.1,0.1,0,0.1L7.4,2.3l0.1,0.3c0,0,0,0.1-0.1,0.1L7.1,2.5L6.8,2.7
			c0,0-0.1,0-0.1-0.1l0.1-0.3L6.5,2.1c0,0,0-0.1,0-0.1l0.4,0L7.1,1.6C7.1,1.6,7.1,1.6,7.1,1.6z"/>
		<path class="st0" d="M7.1,3.4l0.1,0.3l0.4,0c0,0,0.1,0.1,0,0.1L7.4,4.1l0.1,0.3c0,0,0,0.1-0.1,0.1L7.1,4.3L6.8,4.5
			c0,0-0.1,0-0.1-0.1l0.1-0.3L6.5,3.9c0,0,0-0.1,0-0.1l0.4,0L7.1,3.4C7.1,3.4,7.1,3.4,7.1,3.4z"/>
		<path class="st0" d="M7.1,5.2l0.1,0.3l0.4,0c0,0,0.1,0.1,0,0.1L7.4,5.9l0.1,0.3c0,0,0,0.1-0.1,0.1L7.1,6.1L6.8,6.3
			c0,0-0.1,0-0.1-0.1l0.1-0.3L6.5,5.7c0,0,0-0.1,0-0.1l0.4,0L7.1,5.2C7.1,5.2,7.1,5.2,7.1,5.2z"/>
		<path class="st0" d="M7.1,7.1l0.1,0.3l0.4,0c0,0,0.1,0.1,0,0.1L7.4,7.7l0.1,0.3c0,0,0,0.1-0.1,0.1L7.1,7.9L6.8,8.1
			c0,0-0.1,0-0.1-0.1l0.1-0.3L6.5,7.5c0,0,0-0.1,0-0.1l0.4,0L7.1,7.1C7.1,7,7.1,7,7.1,7.1z"/>
		<path class="st0" d="M8.5,0.7l0.1,0.3l0.4,0c0,0,0.1,0.1,0,0.1L8.8,1.4l0.1,0.3c0,0,0,0.1-0.1,0.1L8.5,1.6L8.2,1.8
			c0,0-0.1,0-0.1-0.1l0.1-0.3L7.9,1.2c0,0,0-0.1,0-0.1l0.4,0L8.5,0.7C8.5,0.7,8.5,0.7,8.5,0.7z"/>
		<path class="st0" d="M8.5,2.5l0.1,0.3l0.4,0c0,0,0.1,0.1,0,0.1L8.8,3.2l0.1,0.3c0,0,0,0.1-0.1,0.1L8.5,3.4L8.2,3.6
			c0,0-0.1,0-0.1-0.1l0.1-0.3L7.9,3c0,0,0-0.1,0-0.1l0.4,0L8.5,2.5C8.5,2.5,8.5,2.5,8.5,2.5z"/>
		<path class="st0" d="M8.5,4.4l0.1,0.3l0.4,0c0,0,0.1,0.1,0,0.1L8.8,5l0.1,0.3c0,0,0,0.1-0.1,0.1L8.5,5.2L8.2,5.4
			c0,0-0.1,0-0.1-0.1L8.2,5L7.9,4.8c0,0,0-0.1,0-0.1l0.4,0L8.5,4.4C8.5,4.3,8.5,4.3,8.5,4.4z"/>
		<path class="st0" d="M8.5,6.2l0.1,0.3l0.4,0c0,0,0.1,0.1,0,0.1L8.8,6.8l0.1,0.3c0,0,0,0.1-0.1,0.1L8.5,7L8.2,7.2
			c0,0-0.1,0-0.1-0.1l0.1-0.3L7.9,6.6c0,0,0-0.1,0-0.1l0.4,0L8.5,6.2C8.5,6.1,8.5,6.1,8.5,6.2z"/>
		<path class="st0" d="M8.5,8l0.1,0.3l0.4,0c0,0,0.1,0.1,0,0.1L8.8,8.6L8.9,9c0,0,0,0.1-0.1,0.1L8.5,8.8L8.2,9c0,0-0.1,0-0.1-0.1
			l0.1-0.3L7.9,8.4c0,0,0-0.1,0-0.1l0.4,0L8.5,8C8.5,7.9,8.5,7.9,8.5,8z"/>
		<path class="st0" d="M9.9,1.6L10.1,2l0.4,0c0,0,0.1,0.1,0,0.1l-0.3,0.2l0.1,0.3c0,0,0,0.1-0.1,0.1L9.9,2.5L9.6,2.7
			c0,0-0.1,0-0.1-0.1l0.1-0.3L9.3,2.1c0,0,0-0.1,0-0.1l0.4,0L9.9,1.6C9.9,1.6,9.9,1.6,9.9,1.6z"/>
		<path class="st0" d="M9.9,3.4l0.1,0.3l0.4,0c0,0,0.1,0.1,0,0.1l-0.3,0.2l0.1,0.3c0,0,0,0.1-0.1,0.1L9.9,4.3L9.6,4.5
			c0,0-0.1,0-0.1-0.1l0.1-0.3L9.3,3.9c0,0,0-0.1,0-0.1l0.4,0L9.9,3.4C9.9,3.4,9.9,3.4,9.9,3.4z"/>
		<path class="st0" d="M9.9,5.2l0.1,0.3l0.4,0c0,0,0.1,0.1,0,0.1l-0.3,0.2l0.1,0.3c0,0,0,0.1-0.1,0.1L9.9,6.1L9.6,6.3
			c0,0-0.1,0-0.1-0.1l0.1-0.3L9.3,5.7c0,0,0-0.1,0-0.1l0.4,0L9.9,5.2C9.9,5.2,9.9,5.2,9.9,5.2z"/>
		<path class="st0" d="M9.9,7.1l0.1,0.3l0.4,0c0,0,0.1,0.1,0,0.1l-0.3,0.2l0.1,0.3c0,0,0,0.1-0.1,0.1L9.9,7.9L9.6,8.1
			c0,0-0.1,0-0.1-0.1l0.1-0.3L9.3,7.5c0,0,0-0.1,0-0.1l0.4,0L9.9,7.1C9.9,7,9.9,7,9.9,7.1z"/>
		<path class="st0" d="M11.4,0.7l0.1,0.3l0.4,0c0,0,0.1,0.1,0,0.1l-0.3,0.2l0.1,0.3c0,0,0,0.1-0.1,0.1l-0.3-0.2L11,1.8
			c0,0-0.1,0-0.1-0.1L11,1.4l-0.3-0.2c0,0,0-0.1,0-0.1l0.4,0L11.4,0.7C11.3,0.7,11.3,0.7,11.4,0.7z"/>
		<path class="st0" d="M11.4,2.5l0.1,0.3l0.4,0c0,0,0.1,0.1,0,0.1l-0.3,0.2l0.1,0.3c0,0,0,0.1-0.1,0.1l-0.3-0.2L11,3.6
			c0,0-0.1,0-0.1-0.1L11,3.2L10.8,3c0,0,0-0.1,0-0.1l0.4,0L11.4,2.5C11.3,2.5,11.3,2.5,11.4,2.5z"/>
		<path class="st0" d="M11.4,4.4l0.1,0.3l0.4,0c0,0,0.1,0.1,0,0.1L11.6,5l0.1,0.3c0,0,0,0.1-0.1,0.1l-0.3-0.2L11,5.4
			c0,0-0.1,0-0.1-0.1L11,5l-0.3-0.2c0,0,0-0.1,0-0.1l0.4,0L11.4,4.4C11.3,4.3,11.3,4.3,11.4,4.4z"/>
		<path class="st0" d="M11.4,6.2l0.1,0.3l0.4,0c0,0,0.1,0.1,0,0.1l-0.3,0.2l0.1,0.3c0,0,0,0.1-0.1,0.1L11.3,7L11,7.2
			c0,0-0.1,0-0.1-0.1L11,6.8l-0.3-0.2c0,0,0-0.1,0-0.1l0.4,0L11.4,6.2C11.3,6.1,11.3,6.1,11.4,6.2z"/>
		<path class="st0" d="M11.4,8l0.1,0.3l0.4,0c0,0,0.1,0.1,0,0.1l-0.3,0.2L11.7,9c0,0,0,0.1-0.1,0.1l-0.3-0.2L11,9c0,0-0.1,0-0.1-0.1
			L11,8.6l-0.3-0.2c0,0,0-0.1,0-0.1l0.4,0L11.4,8C11.3,7.9,11.3,7.9,11.4,8z"/>
	</g>
</g>
</svg>
